icons/metadata.svg

<svg xmlns="http://www.w3.org/2000/svg" fill="none" viewBox="0 0 960 960"><g fill="#ffc61b"><path d="M480 296.599c-14.561 0-26.364-11.805-26.364-26.365V26.364C453.636 11.805 465.439 0 480 0s26.364 11.805 26.364 26.364v243.87c0 14.558-11.803 26.365-26.364 26.365"/><path d="M625.003 960h-444.09c-14.561 0-26.364-11.805-26.364-26.364V333.864a26.37 26.37 0 0 1 8.966-19.809l299.087-262.71c9.95-8.737 24.845-8.737 34.796 0l299.087 262.71a26.36 26.36 0 0 1 8.966 19.809V932.25c0 14.558-11.803 26.364-26.364 26.364s-26.364-11.805-26.364-26.364V345.797L480 106.245 207.277 345.797v561.474h417.726c14.561 0 26.365 11.805 26.365 26.365S639.564 960 625.003 960"/><path d="M536.683 296.599H423.317c-14.561 0-26.365-11.805-26.365-26.364s11.804-26.365 26.365-26.365h113.366c14.561 0 26.364 11.805 26.364 26.365s-11.803 26.364-26.364 26.364m88.32 510.148h-444.09c-14.561 0-26.364-11.805-26.364-26.364V479.829c0-14.557 11.803-26.364 26.364-26.364h444.09c14.561 0 26.365 11.805 26.365 26.364v300.554c0 14.559-11.804 26.364-26.365 26.364m-417.726-52.729h391.362V506.194H207.277z"/><path d="M349.059 603.742H180.913c-14.561 0-26.364-11.805-26.364-26.364s11.803-26.364 26.364-26.364h168.146c14.562 0 26.365 11.807 26.365 26.364s-11.803 26.364-26.365 26.364M463.303 709.2h-282.39c-14.561 0-26.364-11.805-26.364-26.364s11.803-26.365 26.364-26.365h282.39c14.561 0 26.365 11.805 26.365 26.365S477.864 709.2 463.303 709.2"/></g></svg>

<!--
  - The MIT License (MIT)
  -
  - Copyright (c) 2015-2024 Elior "Mallowigi" Boukhobza
  -
  - Permission is hereby granted, free of charge, to any person obtaining a copy
  - of this software and associated documentation files (the "Software"), to deal
  - in the Software without restriction, including without limitation the rights
  - to use, copy, modify, merge, publish, distribute, sublicense, and/or sell
  - copies of the Software, and to permit persons to whom the Software is
  - furnished to do so, subject to the following conditions:
  -
  - The above copyright notice and this permission notice shall be included in all
  - copies or substantial portions of the Software.
  -
  - THE SOFTWARE IS PROVIDED "AS IS", WITHOUT WARRANTY OF ANY KIND, EXPRESS OR
  - IMPLIED, INCLUDING BUT NOT LIMITED TO THE WARRANTIES OF MERCHANTABILITY,
  - FITNESS FOR A PARTICULAR PURPOSE AND NONINFRINGEMENT. IN NO EVENT SHALL THE
  - AUTHORS OR COPYRIGHT HOLDERS BE LIABLE FOR ANY CLAIM, DAMAGES OR OTHER
  - LIABILITY, WHETHER IN AN ACTION OF CONTRACT, TORT OR OTHERWISE, ARISING FROM,
  - OUT OF OR IN CONNECTION WITH THE SOFTWARE OR THE USE OR OTHER DEALINGS IN THE
  - SOFTWARE.
  -->

<svg width="960" height="960" viewBox="0 0 960 960" fill="none" xmlns="http://www.w3.org/2000/svg">
  <g fill='#FFC61B'>
    <path
        d="M480 296.599C465.439 296.599 453.636 284.794 453.636 270.234V26.3644C453.636 11.805 465.439 0 480 0C494.561 0 506.364 11.805 506.364 26.3644V270.234C506.364 284.792 494.561 296.599 480 296.599Z"
    />
    <path
        d="M625.003 960H180.913C166.352 960 154.549 948.195 154.549 933.636V333.864C154.549 326.28 157.815 319.063 163.515 314.055L462.602 51.345C472.552 42.6075 487.447 42.6075 497.398 51.345L796.485 314.055C802.185 319.061 805.451 326.28 805.451 333.864V932.25C805.451 946.808 793.648 958.614 779.087 958.614C764.526 958.614 752.723 946.809 752.723 932.25V345.797L480 106.245L207.277 345.797V907.271H625.003C639.564 907.271 651.368 919.076 651.368 933.636C651.368 948.195 639.564 960 625.003 960Z"
    />
    <path
        d="M536.683 296.599H423.317C408.756 296.599 396.952 284.794 396.952 270.235C396.952 255.675 408.756 243.87 423.317 243.87H536.683C551.244 243.87 563.047 255.675 563.047 270.235C563.047 284.794 551.244 296.599 536.683 296.599Z"
    />
    <path
        d="M625.003 806.747H180.913C166.352 806.747 154.549 794.942 154.549 780.383V479.829C154.549 465.272 166.352 453.465 180.913 453.465H625.003C639.564 453.465 651.368 465.27 651.368 479.829V780.383C651.368 794.942 639.564 806.747 625.003 806.747ZM207.277 754.018H598.639V506.194H207.277V754.018Z"
    />
    <path
        d="M349.059 603.742H180.913C166.352 603.742 154.549 591.937 154.549 577.378C154.549 562.819 166.352 551.014 180.913 551.014H349.059C363.621 551.014 375.424 562.821 375.424 577.378C375.424 591.936 363.621 603.742 349.059 603.742Z"
    />
    <path
        d="M463.303 709.2H180.913C166.352 709.2 154.549 697.395 154.549 682.836C154.549 668.276 166.352 656.471 180.913 656.471H463.303C477.864 656.471 489.668 668.276 489.668 682.836C489.668 697.395 477.864 709.2 463.303 709.2Z"
    />
  </g>
</svg>
